packages/bezier-icons/icons/crown-filled.svg

<svg width="24" height="24" viewBox="0 0 24 24" fill="none" xmlns="http://www.w3.org/2000/svg">
<path d="M2.26992 7.88934L3.63205 17.4242C3.84319 18.9022 5.10895 20 6.6019 20H17.3981C18.8911 20 20.1568 18.9022 20.368 17.4242L21.7301 7.88935C21.8442 7.09079 21.0144 6.49275 20.2929 6.8535L16.7896 8.60517C16.3385 8.83071 15.7901 8.68506 15.5103 8.26544L12.8321 4.24803C12.4362 3.6543 11.5638 3.6543 11.168 4.24803L8.48969 8.26544C8.20994 8.68506 7.66151 8.83071 7.21043 8.60517L3.70709 6.8535C2.98559 6.49275 2.15585 7.09079 2.26992 7.88934Z" fill="#313234"/>
</svg>

<svg xmlns="http://www.w3.org/2000/svg" width="24" height="24" fill="none" viewBox="0 0 24 24"><path fill="#313234" d="m2.27 7.89 1.362 9.534A3 3 0 0 0 6.602 20h10.796a3 3 0 0 0 2.97-2.576L21.73 7.89a1 1 0 0 0-1.437-1.035L16.79 8.605a1 1 0 0 1-1.28-.34l-2.678-4.017a1 1 0 0 0-1.664 0L8.49 8.265a1 1 0 0 1-1.28.34L3.707 6.854A1 1 0 0 0 2.27 7.889"/></svg>
